X:1
T:Mass in D - Bernabei
T:#
%%score [ 1 2 3 4 ]
L:1/8
Q:1/4=60
M:4/4
K:D
V:1 treble nm="Soprano" snm="S"
V:2 treble nm="Alto" snm="A"
V:3 treble-8 nm="Tenor" snm="T"
V:4 bass nm="Bass" snm="B"
V:1
"^Giuseppe Antonio Bernabei\n(1649-1732)""^Mass in D - Kyrie""^lento" z8 | z8 | z4!mf! A3 A | %3
w: ||Ky- ri-|
 B2 (d4 c2) |[M:4/4] B3 B A2 A2 |!<(! (cdec d!<)!DF^G | A2) E4!f! B2 | %7
w: e e\- *|le- i- son, e-|lei\- * * * * * * *|* son, e-|
"^rit."[Q:1/4=59] (!>!e2[Q:1/4=56] d4)[Q:1/4=54]!>(! c2 |[Q:1/4=54] !fermata!d8!>)! || %9
w: le\- * i-|son.|
[Q:1/4=54][Q:1/4=60][Q:1/4=54][Q:1/4=54][Q:1/4=54] z8 | z8 | z8 |!mf! d4 c2 (A2 | B2 c2) (!>!d4- | %14
w: |||Chri- ste e\-|* * lei\-|
"^rit."[Q:1/4=59] d2[Q:1/4=57] c2[Q:1/4=55]!>(! B4) |[Q:1/4=54] !fermata!c8!>)! ||[Q:1/4=60] z8 | %17
w: |son.||
 z8 |!mf! A3 A G2 (E2 |[Q:1/4=60][Q:1/4=60][Q:1/4=60][Q:1/4=60] F4 ^G2) A2- | A2 ^G2 A3 A | %21
w: |Ky- ri- e e\-|* * lei\-|* son. Ky- ri-|
 =G2 E2 F2 ^G2 | A4!f! d3 d | e2 (!>!g4 f2) |!>(! e4 d2!>)! D2 | %25
w: e e- le- i-|son. Ky- ri-|e e\- *|lei- son, e\-|
"^rit."!p![Q:1/4=55] A6[Q:1/4=51] A2 |[Q:1/4=50] !fermata!A8 |] %27
w: le- i-|son.|
V:2
 z4!mf! D3 D | E2 (G4 F2) | E2 D4 D2 | G2 A4 A2 |[M:4/4] (FD G4) F2 | E4 D3 D | E4!f! (G4- | %7
w: Ky- ri-|e e\- *|lei- son, e-|lei- son, e-|le\- * * i-|son. Ky- ri-|e e\-|
"^rit." G2 F2) E3!>(! E | !fermata!F8!>)! || z8 | z8 |!mf! A4 G2 (E2 | F2 ^G2 A2 F2) | E4 D2 F2 | %14
w: * * le- i-|son.|||Chri- ste e\-||lei- son, e-|
"^rit." E6!>(! E2 | !fermata!E8!>)! || z4!mf! D3 D | E2 (G4 F2) | E4 D2 A2- | A2 B2 E2 E2 | %20
w: le- i-|son.|Ky- ri-|e e\- *|lei- son, e\-|* lei- son, e-|
 B2 B,2 E4 | E4 B3 B | E2 A2 F4 | E2 D2!f! A3 A |!>(! G2 (E2 F2!>)! G2- |"^rit." G2!p! F2) E4 | %26
w: le- i- son.|e- le- i-|son, e- lei\-|* son. Ky- ri-|e e\- * *|* * lei-|
 !fermata!F8 |] %27
w: son.|
V:3
!mf! A3 A B2 d2 | c2 B2 A2 d2 | (GAB)G A4 | (e2 f2) e3 e |[M:4/4][K:treble-8] d8 | A3 A B2 (d2- | %6
w: Ky- ri- e e-|le- i- son, e-|le\- * * i- son,|e\- * le- i-|son.|Ky- ri- e e\-|
 d2 c2) B3 B |"^rit."!>(! A8-!>)! | !fermata!A8 ||!mf! d4 c2 (A2 | B2 c2) d4 | c2 d2 e2 e2 | %12
w: * * le- i-|son.||Chri- ste e\-|* * lei-|son, e- le- i-|
 A2 (B2 c2) (!>!d2- | d2 !>!c4 BA |"^rit." ^G2 A4)!>(! G2 | !fermata!A8!>)! ||!mf! A3 A B2 d2 | %17
w: son, e\- * le\-||* * i-|son.|Ky- ri- e e-|
 c2 B2 A2 A2 | c4 B2 A2 | (FDdc B2) c2 | d3 d c2 (A2 | B2 c2) (d4 | c4 B2) A2- | A2!f! B2 (cedc | %24
w: le- i- son, e-|lei- son, e-|lei\- * * * * son.|Ky- ri- e e\-|* * lei\-|* * son,|* e- lei\- * * *|
!>(! B4) B2!>)!!p! B2 |"^rit." (c2 d4) c2 | !fermata!d8 |] %27
w: * son, e-|le\- * i-|son.|
V:4
 z8 | z4!mf! D,3 D, | E,2 (G,4 F,2) | E,2 D,2 A,,3 A,, |[M:4/4] B,,4 D,4 | (C,4 B,,3) B,, | %6
w: |Ky- ri-|e e\- *|lei- son. Ky- ri-|e e-|le\- * i-|
 A,,2!f! A,,2 (E,4 |"^rit." C,2 D,2 A,2) A,,2 | !fermata!D,8 || z4!mf! A,4 | G,2 (E,2 F,2 ^G,2 | %11
w: son, e- le\-|* * * i-|son.|Chri-|ste e\- * *|
 A,2 F,2) E,4 | D,2 B,,2 (F,4 | G,2 A,2 D,4) |"^rit." E,2 A,,2 E,3!>(! E, | A,,8!>)! || z8 | %17
w: * * lei-|son, e- lei\-||son, e- le- i-|son.||
 z4!mf! D,3 D, | C,2 (A,,2 B,,2 C,2) | (D,6 C,2 | B,,4) A,,2 A,,2 | E,4 B,,4 | %22
w: Ky- ri-|e e\- * *|lei\- *|* son, e-|lei- son.|
!f! A,,3 A,, B,,2 D,2 | !>!C,2 B,,2 A,,2 D,2 |!>(! E,4 B,,2!>)!!p! B,,2 |"^rit." A,,6 A,,2 | %26
w: Ky- ri- e e-|le- i- son, e-|lei- son, e-|le- i-|
 !fermata!D,8 |] %27
w: son.|

